static/img/kroki/c0219909bb9006440344e853ad3680cf.svg

<?xml version="1.0" encoding="us-ascii" standalone="no"?><svg xmlns="http://www.w3.org/2000/svg" xmlns:xlink="http://www.w3.org/1999/xlink" contentStyleType="text/css" height="152px" preserveAspectRatio="none" style="width:490px;height:152px;" version="1.1" viewBox="0 0 490 152" width="490px" zoomAndPan="magnify"><defs/><g><!--class azure_sql_server_managed_instance--><g id="elem_azure_sql_server_managed_instance"><rect codeLine="23" fill="#3D176E" height="39.7891" id="azure_sql_server_managed_instance" rx="2.5" ry="2.5" style="stroke:#000D19;stroke-width:0.5;" width="347" x="71.5" y="7"/><ellipse cx="86.5" cy="26.8945" fill="#ADD1B2" rx="11" ry="11" style="stroke:#181818;stroke-width:1.0;"/><path d="M89.4688,32.5352 Q88.8906,32.832 88.25,32.9727 Q87.6094,33.1289 86.9063,33.1289 Q84.4063,33.1289 83.0781,31.4883 Q81.7656,29.832 81.7656,26.707 Q81.7656,23.582 83.0781,21.9258 Q84.4063,20.2695 86.9063,20.2695 Q87.6094,20.2695 88.25,20.4258 Q88.9063,20.582 89.4688,20.8789 L89.4688,23.5977 Q88.8438,23.0195 88.25,22.7539 Q87.6563,22.4727 87.0313,22.4727 Q85.6875,22.4727 85,23.5508 Q84.3125,24.6133 84.3125,26.707 Q84.3125,28.8008 85,29.8789 Q85.6875,30.9414 87.0313,30.9414 Q87.6563,30.9414 88.25,30.6758 Q88.8438,30.3945 89.4688,29.8164 L89.4688,32.5352 Z " fill="#000000"/><text fill="#D9B8FF" font-family="Helvetica" font-size="17" lengthAdjust="spacing" textLength="305" x="105.5" y="32.7798">azure_sql_server_managed_instance</text></g><!--class azure_sql_server_managed_instance_failover_group--><g id="elem_azure_sql_server_managed_instance_failover_group"><rect codeLine="26" fill="#3D176E" height="39.7891" id="azure_sql_server_managed_instance_failover_group" rx="2.5" ry="2.5" style="stroke:#000D19;stroke-width:0.5;" width="476" x="7" y="106.79"/><ellipse cx="22" cy="126.6845" fill="#ADD1B2" rx="11" ry="11" style="stroke:#181818;stroke-width:1.0;"/><path d="M24.9688,132.3252 Q24.3906,132.622 23.75,132.7627 Q23.1094,132.9189 22.4063,132.9189 Q19.9063,132.9189 18.5781,131.2783 Q17.2656,129.622 17.2656,126.497 Q17.2656,123.372 18.5781,121.7158 Q19.9063,120.0595 22.4063,120.0595 Q23.1094,120.0595 23.75,120.2158 Q24.4063,120.372 24.9688,120.6689 L24.9688,123.3877 Q24.3438,122.8095 23.75,122.5439 Q23.1563,122.2627 22.5313,122.2627 Q21.1875,122.2627 20.5,123.3408 Q19.8125,124.4033 19.8125,126.497 Q19.8125,128.5908 20.5,129.6689 Q21.1875,130.7314 22.5313,130.7314 Q23.1563,130.7314 23.75,130.4658 Q24.3438,130.1845 24.9688,129.6064 L24.9688,132.3252 Z " fill="#000000"/><text fill="#D9B8FF" font-family="Helvetica" font-size="17" lengthAdjust="spacing" textLength="434" x="41" y="132.5698">azure_sql_server_managed_instance_failover_group</text></g><!--link azure_sql_server_managed_instance to azure_sql_server_managed_instance_failover_group--><g id="link_azure_sql_server_managed_instance_azure_sql_server_managed_instance_failover_group"><path codeLine="29" d="M245,47.22 C245,64.36 245,83.27 245,100.41 " fill="none" id="azure_sql_server_managed_instance-to-azure_sql_server_managed_instance_failover_group" style="stroke:#1A83AF;stroke-width:2.0;"/><polygon fill="#1A83AF" points="245,106.41,249,97.41,245,101.41,241,97.41,245,106.41" style="stroke:#1A83AF;stroke-width:2.0;"/></g><!--SRC=[bP1FJy904CNl_HIRz4pIIhHmCQbDY5w84M_6D4Dt5ZRTFtLsWO3nksj5pT8Aw7NUR-QzDql9aQ5k_9Pfr7Ca5xbQcWO8DCk9xAQmoXABXG0npBhYn1f_5fY2HdQBQerULj0b7fUogWqwnou2wGQgUa5sPVZ-l2SmxaD2umEgKE1SxZt9-SfZ48QFvoCXkcJtQ3paQNQ5FSmIH_f2aYJXwRYBdBKwsVk7cCaTiZHysjHwxCNiMNnI9rEsH12oL_HRFvhn7ZYNPi4kWzd3FXCPf8FvR0dSRbfQW7AXZVD8QFssmQBN2iSZBh9VuRjZS5IrhsEmMn6MxaML3ccDL6emi41UIkCyc0hPQnIz_HKk1KXbMwMrRFQxvoq6Jt6QZuRvv7bm_M-Jw1q0]--></g></svg>

<svg xmlns="http://www.w3.org/2000/svg" width="490" height="152" viewBox="0 0 490 152"><rect width="347" height="39.789" x="71.5" y="7" fill="#3D176E" rx="2.5" ry="2.5" style="stroke:#000d19;stroke-width:.5"/><circle cx="86.5" cy="26.895" r="11" fill="#ADD1B2" style="stroke:#181818;stroke-width:1"/><path d="M89.469 32.535q-.578.297-1.219.438-.64.156-1.344.156-2.5 0-3.828-1.64-1.312-1.657-1.312-4.782t1.312-4.781q1.328-1.656 3.828-1.656.703 0 1.344.156.656.156 1.219.453v2.719q-.625-.578-1.219-.844-.594-.281-1.219-.281-1.344 0-2.031 1.078-.687 1.062-.687 3.156T85 29.879q.688 1.062 2.031 1.062.625 0 1.219-.265.594-.281 1.219-.86z"/><text x="105.5" y="32.78" fill="#D9B8FF" font-family="Helvetica" font-size="17" textLength="305">azure_sql_server_managed_instance</text><rect width="476" height="39.789" x="7" y="106.79" fill="#3D176E" rx="2.5" ry="2.5" style="stroke:#000d19;stroke-width:.5"/><circle cx="22" cy="126.684" r="11" fill="#ADD1B2" style="stroke:#181818;stroke-width:1"/><path d="M24.969 132.325q-.578.297-1.219.438-.64.156-1.344.156-2.5 0-3.828-1.64-1.312-1.657-1.312-4.782t1.312-4.781q1.328-1.656 3.828-1.656.703 0 1.344.156.656.156 1.219.453v2.719q-.625-.579-1.219-.844-.594-.281-1.219-.281-1.343 0-2.031 1.078-.687 1.062-.687 3.156t.687 3.172q.688 1.062 2.031 1.062.625 0 1.219-.265.594-.281 1.219-.86z"/><text x="41" y="132.57" fill="#D9B8FF" font-family="Helvetica" font-size="17" textLength="434">azure_sql_server_managed_instance_failover_group</text><path fill="none" d="M245 47.22v53.19" style="stroke:#1a83af;stroke-width:2"/><path fill="#1A83AF" d="m245 106.41 4-9-4 4-4-4z" style="stroke:#1a83af;stroke-width:2"/></svg>
